svg/regular/bx-yen.svg

<svg xmlns="http://www.w3.org/2000/svg" width="24" height="24"><path d="M17.2 3.4 12 10.333 6.8 3.4 5.2 4.6 10 11H7v2h4v2H7v2h4v4h2v-4h4v-2h-4v-2h4v-2h-3l4.8-6.4z"/></svg>

<svg xmlns="http://www.w3.org/2000/svg" width="24" height="24" viewBox="0 0 24 24"><path d="M17.2 3.4L12 10.333 6.8 3.4 5.2 4.6 10 11 7 11 7 13 11 13 11 15 7 15 7 17 11 17 11 21 13 21 13 17 17 17 17 15 13 15 13 13 17 13 17 11 14 11 18.8 4.6z"/></svg>
